svgs/solid/paw.svg

<svg xmlns="http://www.w3.org/2000/svg" viewBox="0 0 512 512"><!--! Font Awesome Pro 6.1.2 by @fontawesome - https://fontawesome.com License - https://fontawesome.com/license (Commercial License) Copyright 2022 Fonticons, Inc. --><path d="M226.5 92.85C240.8 135.7 226.2 179.1 193.9 189.7C161.6 200.2 123.8 174 109.5 131.1C95.19 88.26 109.8 44.92 142.1 34.34C174.4 23.77 212.2 49.96 226.5 92.85zM100.4 198.6C119.2 231 114.7 268.7 90.16 282.7C65.65 296.8 30.49 281.9 11.63 249.4C-7.237 216.1-2.664 179.3 21.84 165.3C46.35 151.2 81.51 166.1 100.4 198.6zM69.21 401.2C121.6 259.9 214.7 224 256 224C297.3 224 390.4 259.9 442.8 401.2C446.4 410.9 448 421.3 448 431.7V433.3C448 459.1 427.1 480 401.3 480C389.8 480 378.4 478.6 367.3 475.8L279.3 453.8C263.1 450 248 450 232.7 453.8L144.7 475.8C133.6 478.6 122.2 480 110.7 480C84.93 480 64 459.1 64 433.3V431.7C64 421.3 65.6 410.9 69.21 401.2H69.21zM421.8 282.7C397.3 268.7 392.8 231 411.6 198.6C430.5 166.1 465.7 151.2 490.2 165.3C514.7 179.3 519.2 216.1 500.4 249.4C481.5 281.9 446.3 296.8 421.8 282.7zM310.1 189.7C277.8 179.1 263.2 135.7 277.5 92.85C291.8 49.96 329.6 23.77 361.9 34.34C394.2 44.92 408.8 88.26 394.5 131.1C380.2 174 342.4 200.2 310.1 189.7z"/></svg>

<svg xmlns="http://www.w3.org/2000/svg" viewBox="0 0 512 512"><!--! Font Awesome Pro 6.2.0 by @fontawesome - https://fontawesome.com License - https://fontawesome.com/license (Commercial License) Copyright 2022 Fonticons, Inc. --><path d="M226.5 92.9c14.3 42.9-.3 86.2-32.6 96.8s-70.1-15.6-84.4-58.5s.3-86.2 32.6-96.8s70.1 15.6 84.4 58.5zM100.4 198.6c18.9 32.4 14.3 70.1-10.2 84.1s-59.7-.9-78.5-33.3S-2.7 179.3 21.8 165.3s59.7 .9 78.5 33.3zM69.2 401.2C121.6 259.9 214.7 224 256 224s134.4 35.9 186.8 177.2c3.6 9.7 5.2 20.1 5.2 30.5v1.6c0 25.8-20.9 46.7-46.7 46.7c-11.5 0-22.9-1.4-34-4.2l-88-22c-15.3-3.8-31.3-3.8-46.6 0l-88 22c-11.1 2.8-22.5 4.2-34 4.2C84.9 480 64 459.1 64 433.3v-1.6c0-10.4 1.6-20.8 5.2-30.5zM421.8 282.7c-24.5-14-29.1-51.7-10.2-84.1s54-47.3 78.5-33.3s29.1 51.7 10.2 84.1s-54 47.3-78.5 33.3zM310.1 189.7c-32.3-10.6-46.9-53.9-32.6-96.8s52.1-69.1 84.4-58.5s46.9 53.9 32.6 96.8s-52.1 69.1-84.4 58.5z"/></svg>
